X:1
T:Las, voullez vous
T:Las, voullez vous
T:Jean de Castro
T:Source : Livre de chansons à 3 parties---Paris---A.le Roy & R.Ballard---1575. Editor : André Vierendeels (02/10/15).
T:Notes : Original clefs : C1, C3, C4 Editorial accidentala above the staff
C:Jean de Castro
%%score [ 1 2 3 ]
L:1/8
Q:1/4=96
M:2/2
K:C
V:1 treble nm="Superius" snm="S"
V:2 treble nm="Altus" snm="A"
V:3 treble-8 nm="Tenor" snm="T"
V:1
 A8- | A8 | c8- | c4 B4 | B8 | A8- | A8 | A8- | A4 G4 | A4 E4 | F2 G2 A2 GA | B2 Ac B2 AG | %12
w: Las,|_|voul-|* lez|vous|qu'u-||ne|_ per-|son- ne|chan- * * * *||
 A2 GF E4 | ^F4 z2 A2 | A4 A4 | G2 F2 E2 D2 | C4 c4 | B4 A4 | A2 G2 F2 E2 | ^F4 A4 | c4 z2 c2- | %21
w: |te, à|qui le|coeur, _ _ _|_ à|qui le|coeur _ _ _|_ ne|faict que|
 c2 B4 A2 | A2 d4 B2 | B4 z2 A2- | A2 ^G2 G4 | z4 E4 |"^-natural" G4 ^F2 G2 | AGAB c4 | G8 | z8 | %30
w: _ sou- pi-|rer, sou- pi-|rer, sou-|* pi- rer,|lais-|sez chan- *||ter,||
 z4 d4 | c4 A3 B | c2 BA B4 | c4 z2 G2 | A4 B4 | c4 z2 A2 | E4 G4 | D2 E2 F2 G2 | A4 A4 | c8- | %40
w: lais-|sez chan- *||ter, lais-|sez chan-|ter, lais-|sez chan-||ter ce-|luy|
 c4 B4 | A4 ^G4 | A8 | ^G4 B4 | c4 A4 | G8 | z8 | A8 | ^G4 G4 | A8- | A8 | z4 B4 | c6 A2 | c4 B4 | %54
w: _ qui|se con-|ten-|te, et|me lais-|sez,||et|me lais-|sez|_|mon|seul mal|en- du-|
 A4 E4 | E4 D4 | E4 ^G4 | A6 E2 | F4 F4 | E4 G4 | A4 G4 | G4 F4 | G4 G4 | A6 E2 | G4 F4 | %65
w: rer, et|me lais-|sez mon|seul mal|en- du-|rer, mon|seul mal|en- du-|rer, mon|seul mal|en- du-|
"^-natural" E4 c4 | d6 A2 | c4 B4 | c4 c4 | d6 A2 | z2 A4 G2 | A8- | A8- | A8 | z4 G4 | A6 E2 | %76
w: rer, mon|seul mal|en- du-|rer, mon|seul mal|en- du-|rer,|_||mon|seul mal|
 G4 A4- |"^#" A2 GF ^G4 | A4 F4- | F4 F4 | !fermata!E8 |] %81
w: en- du-||rer, en-|* du-|rer.|
V:2
 z8 | z8 | E8 | G8- | G4 D4 | F8- | F4 E4 | F4 E4- | E4 D4- | D4 ^C4 | D2 B,2 z2 B,2 | %11
w: ||Las,|voul-|* lez|vous|_ qu'u-|ne per-|* son-|* ne|chan- te, qu'u-|
 D2 C2 E2 A,2 | C2 D3 C/B,/ C2 |"^-natural" D4 F4 | E4 F4 | D4 G4 | E8- | E4 E4 | F4 D4 | %19
w: ne per- son- ne|chan- * * * *|te, à|qui le|coeur, à|qui|_ le|coeur,- à|
"^-natural" D4 F4 | E4 A4- | A2 G4 E2 | F3 A G4 | z2 E4 ^C2 | D2 B,4 B,2 | ^C8 | z4 D4 | %27
w: qui le|coeur ne|_ faict que|sou- pi- rer,|sou- pi-|rer, sou- pi-|rer,|lais-|
 D4 A,2 B,2 | CB,CD E4 | D4 G4 | D4 F4 | E8 | z4 G4 | E4 C2 D2 |"^#" EDEF ^G4 | A8 | z4 E4 | %37
w: sez chan- *||ter, lais-|sez chan-|ter,|lais-|sez chan- *||ter,|lais-|
 B,4 D4 | A,2 B,2 C2 D2 | E4 A4 | G4 G4 | F2 E2 E4- | E4 D4 |"^-natural" E4 G4 | A4 F4 | E4 E4 | %46
w: sez chan-|ter- _ _ _|_ ce-|luy qui|se con- ten-||te, et|me lais-|sez, et|
 F4 D4 | ^C4 z2 D2 | B,4 B,4 | A,4 z2 E2 | F6 E2 | E4 D4 | E4 A,4 | A,4 B,4 | C8 | z4 A,4 | %56
w: me lais-|sez, et|me lais-|sez mon|seul mal|en- du-|rer, et|me lais-|sez,|et|
 C4 B,4 | A,4 ^C4 | D6 A,2 | C4 B,4 | A,4 E4 | D4 C4 | D4 D4 | F6 C2 | E4 D4 | ^C4 E4 | G4 F4 | %67
w: me lais-|sez mon|seul mal|en- du-|rer, et|me lais-|sez mon|seul mal|en- du-|rer, et|me lais-|
 E4 G4 | A6 A,2 | D4 F4 | E4 E4 | C4 D4 | E4 E4 | F6 C2 | E4 D4 |"^-natural" ^C4 C4 | D6 A,2 | %77
w: sez mon|seul mal|en- du-|rer, et|me lais-|sez mon|seul mal|en- du-|rer, mon|seul mal|
 C4 B,4 | A,4 D4- | D4 D4 | !fermata!^C8 |] %81
w: en- du-|* en-|* du-|rer.|
V:3
 z8 | A8- | A8 | e8- | e4 B4 | d8- | d4 ^c4 | d4 A4 | _B8 | A8 | D2 E2 F2 G2- | G2 A2 E2 FG | %12
w: |le|_|coeur,|* à|qui|_ le|coeur ne|faict|que|sou- * * *||
 F2 ED A4 | D4 d4 | ^c4 d4 | G8 | z4 A4 | ^G4 A4 | D8 | z4 d4 | A4 A4- | A2 e4 ^c2 | d4 z2 G2- | %23
w: |pi- rer,|sou- pi-|rer,|sou-|pi- rer,|lais-|sez|chan- ter,|_ lais- sez|chan- ter,|
 G2 E2 A4 | z2 E4 E2 | A8 | z8 | z8 | z4 c4 | B4 G2 A2 | BABc d4 |"^-natural" A8 | z4 e4 | %33
w: * lais- sez|chan- ter|ce-|||luy|qui se *||con-|ten-|
 c4 A2 B2 | c2 A2 e4 | A4 A4- | A4 E4 | G4 D2 E2 | F2 G2 A4- | A4 A4 | c4 G4 | A4 E4 | F8 | E8 | %44
w: te, et *||me lais-|* sez,|et me _|_ _ _|* lais-|sez mon|seul mal|en-|du-|
 z8 | z4 c4 | d4 B4 | A4 D4 | E4 E4 | F4 A4 | d6 A2 | c4 B4 | A8 | z4 E4 | A6 E2 | G4 F4 | E8 | %57
w: |rer,|mon seul|mal en-|du- rer,|mon seul-|mal en-|du- rer,|mon|seul|mal en-|du- rer,|mon|
 z8 | z8 | z4 E4 | c6 G2 | _B4 A4 | G8 | z8 | z8 | A8 | _B6 F2 | A4 G4 | F8 | z4 D4 | A6 E2 | %71
w: ||seul|mal en-|du- rer,|mon|||seul|mal en-|du- rer,|mon|seul|mal en-|
 F4 D4 | A4 A4 | d6 A2 | c4 B4 | A4 A4 | G4 D4 | E6 E2 | F4 D4- | D4 D4 | !fermata!A8 |] %81
w: du- rer,|en du-|rer. *||||||||

